X: 11562
Q: "Slow."
M: 3/4
L: 1/16
K: F
(F3G) |\
{G}A4 c4 (c2de) | f6 d2 (c/d/f3) | (d2c2)(B2A2)(G2F2) | F8 (f3g) |\
{f}e6 d2 c4 | {c}d4 f4 C4 | {C}D4 F4 (F3G) | F8 :| A2B2 |\
c4 (d3e) (f3e/d/) | {d}c6 A2 (G3A) | F4 (F4 GFGA) | {A}c8 (c2de) |
f4 (a2g2)(f2e2) | (d3e) f4 (F2G2) | A4 (f2e2)(d2^c2) | d8 (c3d/e/) |\
f6 g2 (f2ga) | F6 G2 (A2Bc) | C4 C4 (C2D_E) | {E}D8 (F3G) |\


